images/souvenirs.svg

<svg width="65" height="77" viewBox="0 0 65 77" fill="none" xmlns="http://www.w3.org/2000/svg">
<path d="M61.7499 22.9467H61.6499H36.9499C50.7499 16.0467 51.8499 11.6467 51.3499 9.24674C50.1499 5.24674 45.6499 2.24674 41.3499 3.84674C35.7499 5.94674 34.2499 14.2467 32.7499 20.2467C30.7499 14.1467 28.9499 6.44674 24.5499 2.54674C23.2499 1.44674 21.4499 0.246744 18.7499 0.546744C14.7499 0.946744 8.9499 5.94674 11.2499 11.5467C13.5499 16.9467 20.9499 20.3467 25.8499 23.0467H3.8499H3.5499C1.9499 23.0467 0.649902 24.3467 0.649902 25.9467V37.2467C0.649902 38.8467 1.9499 40.1467 3.5499 40.1467H3.8499V73.4467V75.8467V76.4467H61.6499V75.9467V73.4467V40.0467H61.7499C63.3499 40.0467 64.6499 38.7467 64.6499 37.1467V25.8467C64.6499 24.2467 63.3499 22.9467 61.7499 22.9467ZM43.0499 6.34674C45.1499 6.04674 48.0499 7.64674 48.3499 9.54674C48.7499 12.3467 44.9499 14.8467 43.2499 15.9467C40.7499 17.6467 38.3499 18.5467 35.9499 20.0467C36.8499 16.3467 38.4499 7.04674 43.0499 6.34674ZM20.1499 16.3467C17.9499 14.8467 13.6499 11.9467 13.7499 8.54674C13.8499 4.94674 19.4499 1.94674 22.5499 4.64674C26.4499 8.04674 28.2499 15.7467 29.6499 21.2467C26.4499 19.7467 23.3499 18.4467 20.1499 16.3467ZM26.1499 73.4467H6.7499V40.0467H26.1499V73.4467ZM26.1499 36.9467H3.6499V25.9467H26.1499V36.9467ZM36.3499 36.9467V39.9467V73.4467H29.1499V40.0467V37.0467V26.0467H36.3499V36.9467ZM58.6499 73.4467H39.2499V40.0467H58.6499V73.4467ZM61.5499 36.9467H39.2499V25.9467H61.5499V36.9467Z" fill="#83B3D3"/>
</svg>

<svg width="65" height="77" fill="none" xmlns="http://www.w3.org/2000/svg"><path d="M61.75 22.95h-24.8c13.8-6.9 14.9-11.3 14.4-13.7-1.2-4-5.7-7-10-5.4-5.6 2.1-7.1 10.4-8.6 16.4-2-6.1-3.8-13.8-8.2-17.7-1.3-1.1-3.1-2.3-5.8-2-4 .4-9.8 5.4-7.5 11 2.3 5.4 9.7 8.8 14.6 11.5H3.55a2.9 2.9 0 0 0-2.9 2.9v11.3c0 1.6 1.3 2.9 2.9 2.9h.3v36.3h57.8v-36.4h.1c1.6 0 2.9-1.3 2.9-2.9v-11.3c0-1.6-1.3-2.9-2.9-2.9Zm-18.7-16.6c2.1-.3 5 1.3 5.3 3.2.4 2.8-3.4 5.3-5.1 6.4-2.5 1.7-4.9 2.6-7.3 4.1.9-3.7 2.5-13 7.1-13.7Zm-22.9 10c-2.2-1.5-6.5-4.4-6.4-7.8.1-3.6 5.7-6.6 8.8-3.9 3.9 3.4 5.7 11.1 7.1 16.6-3.2-1.5-6.3-2.8-9.5-4.9Zm6 57.1H6.75v-33.4h19.4v33.4Zm0-36.5H3.65v-11h22.5v11Zm10.2 0v36.5h-7.2v-47.4h7.2v10.9Zm22.3 36.5h-19.4v-33.4h19.4v33.4Zm2.9-36.5h-22.3v-11h22.3v11Z" fill="#83B3D3"/></svg>
